X:1
T:Lord Thomas and Fair Ellender (3)
M:6/4
L:1/4
K:C
 G| F E D C2 G| F E D C2 c| c- d c A- F A| c3 z2 c| c A c d2 d| c A A G- F G|\
 A C C C D E| F3 z2|
